fs/device_meeting_room_remote_28_filled.svg

<svg viewBox="0 0 28 28" fill="none" xmlns="http://www.w3.org/2000/svg" height="1em" width="1em">
  <path d="M8.35141 3C6.77292 3 5.38972 4.05637 4.97439 5.57909L3.75848 10.037C3.91887 10.0126 4.08311 10 4.25029 10H8.75076C10.5459 10 12.0011 11.4551 12.0011 13.25V21H21.9973C24.6351 21 26.5508 18.4921 25.8568 15.9475L23.0287 5.57909C22.6134 4.05637 21.2302 3 19.6517 3H8.35141ZM11.9916 24C11.9979 23.9175 12.0011 23.8341 12.0011 23.75V22.5H20.2511C20.6654 22.5 21.0012 22.8358 21.0012 23.25C21.0012 23.6642 20.6654 24 20.2511 24H11.9916ZM6.50047 17C7.32898 17 8.00062 16.3284 8.00062 15.5C8.00062 14.6716 7.32898 14 6.50047 14C5.67195 14 5.00031 14.6716 5.00031 15.5C5.00031 16.3284 5.67195 17 6.50047 17ZM2 13.25C2 12.0074 3.00746 11 4.25023 11H8.7507C9.99347 11 11.0009 12.0074 11.0009 13.25V23.75C11.0009 24.9926 9.99347 26 8.7507 26H4.25023C3.00746 26 2 24.9926 2 23.75V13.25ZM4.25023 12.5C3.83598 12.5 3.50016 12.8358 3.50016 13.25V23.75C3.50016 24.1642 3.83598 24.5 4.25023 24.5H8.7507C9.16495 24.5 9.50078 24.1642 9.50078 23.75V13.25C9.50078 12.8358 9.16495 12.5 8.7507 12.5H4.25023Z" fill="#212121"/>
</svg>

<svg viewBox="0 0 28 28" fill="none" xmlns="http://www.w3.org/2000/svg" height="1em" width="1em">
  <path d="M8.351 3a3.5 3.5 0 0 0-3.377 2.58l-1.216 4.457c.16-.024.325-.037.492-.037h4.5a3.25 3.25 0 0 1 3.251 3.25V21h9.996c2.638 0 4.554-2.508 3.86-5.053L23.029 5.58A3.5 3.5 0 0 0 19.652 3h-11.3Zm3.64 21a2.95 2.95 0 0 0 .01-.25V22.5h8.25a.75.75 0 1 1 0 1.5h-8.26Zm-5.49-7a1.5 1.5 0 1 0 0-3 1.5 1.5 0 0 0 0 3ZM2 13.25A2.25 2.25 0 0 1 4.25 11h4.5A2.25 2.25 0 0 1 11 13.25v10.5A2.25 2.25 0 0 1 8.75 26h-4.5A2.25 2.25 0 0 1 2 23.75v-10.5Zm2.25-.75a.75.75 0 0 0-.75.75v10.5c0 .414.336.75.75.75h4.5a.75.75 0 0 0 .75-.75v-10.5a.75.75 0 0 0-.75-.75h-4.5Z" fill="#212121"/>
</svg>
